templates/main/source/images/work-1.svg

<?xml version="1.0" encoding="utf-8"?>
<svg width="24px" height="24px" viewBox="0 0 24 24" version="1.1" xmlns:xlink="http://www.w3.org/1999/xlink" xmlns="http://www.w3.org/2000/svg">
  <desc>Created with Lunacy</desc>
  <g id="tools">
    <path d="M15 6L17.25 6C17.6647 6 18 6.336 18 6.75L18 9.75C18 10.164 17.6647 10.5 17.25 10.5L16.5 10.5L16.5 18.75C16.5 19.164 16.1647 19.5 15.75 19.5L9.75 19.5L9.75 24L8.25 24L8.25 19.5L2.25 19.5C1.83525 19.5 1.5 19.164 1.5 18.75L1.5 10.5L0.75 10.5C0.33525 10.5 0 10.164 0 9.75L0 6.75C0 6.336 0.33525 6 0.75 6L3 6L3 0.75C3 0.336 3.33525 0 3.75 0L6 0C6.41475 0 6.75 0.336 6.75 0.75L6.75 6L11.25 6L11.25 0.75C11.25 0.336 11.5853 0 12 0L14.25 0C14.6648 0 15 0.336 15 0.75L15 6ZM5.25 6L4.5 6L4.5 1.5L5.25 1.5L5.25 6ZM12.75 6L13.5 6L13.5 1.5L12.75 1.5L12.75 6ZM16.5 9L1.5 9L1.5 7.5L16.5 7.5L16.5 9ZM3 18L15 18L15 10.5L3 10.5L3 18Z" transform="translate(3 9.375E-06)" id="Fill-1" fill="#8C0014" fill-rule="evenodd" stroke="none" />
    <path d="M0 1.5L7.5 1.5L7.5 0L0 0L0 1.5Z" transform="translate(8.25 12)" id="Fill-4" fill="#A6A6A6" stroke="none" />
    <path d="M0 1.5L7.5 1.5L7.5 0L0 0L0 1.5Z" transform="translate(8.25 15)" id="Fill-6" fill="#A6A6A6" stroke="none" />
  </g>
</svg>

<svg width="24" height="24" viewBox="0 0 24 24" xmlns:xlink="http://www.w3.org/1999/xlink" xmlns="http://www.w3.org/2000/svg"><g id="tools" stroke="none"><path d="M15 6h2.25a.75.75 0 01.75.75v3a.75.75 0 01-.75.75h-.75v8.25a.75.75 0 01-.75.75h-6V24h-1.5v-4.5h-6a.75.75 0 01-.75-.75V10.5H.75A.75.75 0 010 9.75v-3A.75.75 0 01.75 6H3V.75A.75.75 0 013.75 0H6a.75.75 0 01.75.75V6h4.5V.75A.75.75 0 0112 0h2.25a.75.75 0 01.75.75V6zM5.25 6H4.5V1.5h.75V6zm7.5 0h.75V1.5h-.75V6zm3.75 3h-15V7.5h15V9zM3 18h12v-7.5H3V18z" transform="translate(3)" id="Fill-1" fill="#8C0014" fill-rule="evenodd"/><path d="M0 1.5h7.5V0H0v1.5z" transform="translate(8.25 12)" id="Fill-4" fill="#A6A6A6"/><path d="M0 1.5h7.5V0H0v1.5z" transform="translate(8.25 15)" id="Fill-6" fill="#A6A6A6"/></g></svg>
